findly-builder/apps/searchassist/src/assets/icons/sidemenu/notification.svg

<svg width="16" height="16" viewBox="0 0 16 16" fill="none" xmlns="http://www.w3.org/2000/svg">
<path d="M8 1C7.45312 1 7 1.45312 7 2V3.14062C5.28125 3.58984 4 5.14453 4 7V10.9844C4 10.9844 3.98438 11.2617 3.85156 11.5195C3.7698 11.6806 3.67768 11.8255 3.48861 11.913C3.23802 12.029 3 12.2239 3 12.5C3 12.7761 3.22386 13 3.5 13H12.5C12.7761 13 13 12.7761 13 12.5C13 12.2239 12.7646 12.0271 12.5089 11.9228C12.2995 11.8374 12.2086 11.6907 12.1289 11.5312C12.0039 11.2773 12 11.0039 12 11.0039V7C12 5.14453 10.7188 3.58984 9 3.14062V2C9 1.45312 8.54688 1 8 1ZM8 13C7.44922 13 7 13.4492 7 14C7 14.5508 7.44922 15 8 15C8.55078 15 9 14.5508 9 14C9 13.4492 8.55078 13 8 13ZM8 4C9.66406 4 11 5.33594 11 7V10.9961C11 10.9961 10.9883 11.4727 11.2344 11.9688C11.2383 11.9805 11.2461 11.9883 11.25 12H4.72656C4.73047 11.9922 4.73828 11.9844 4.74219 11.9805C4.99219 11.4883 5 11.0156 5 11.0156V7C5 5.33594 6.33594 4 8 4Z" fill="black"/>
</svg>

<svg width="16" height="16" fill="none" xmlns="http://www.w3.org/2000/svg"><path d="M8 1c-.547 0-1 .453-1 1v1.14C5.281 3.59 4 5.146 4 7v3.984s-.016.278-.148.536c-.082.16-.174.306-.363.393-.251.116-.489.31-.489.587a.5.5 0 0 0 .5.5h9a.5.5 0 0 0 .5-.5c0-.276-.235-.473-.491-.577-.21-.086-.3-.232-.38-.392a1.388 1.388 0 0 1-.129-.527V7c0-1.855-1.281-3.41-3-3.86V2c0-.547-.453-1-1-1Zm0 12c-.55 0-1 .45-1 1s.45 1 1 1 1-.45 1-1-.45-1-1-1Zm0-9c1.664 0 3 1.336 3 3v3.996s-.012.477.234.973c.004.011.012.02.016.031H4.727a.085.085 0 0 1 .015-.02c.25-.492.258-.964.258-.964V7c0-1.664 1.336-3 3-3Z" fill="#000"/></svg>
